X:1
T: The Groom in his Shirt
C:
R:Reel
Q: 232
K:G
M:4/4
L:1/8
|:B2 AF G2 DG|G2 AG FG Ac|BG AF G2 ef|gf ed Bd gd|
B2 AF G2 DG|G2 AG FG Ac|BG AF G2 ef|gf ed Bd gd|
g2 ga bg eg|fe fg af df|gf ga b2 ag|gf ed Bd ef|
g2 ga bg eg|fe fg af df|g2 bg f2 af|gf ed Bd g2:|
